X: 26393
T: Merry Gardener, The
R: hornpipe
M: 4/4
K: Gmajor
|:Bc|dBAB G2EF|GABd gfga|bage dBGB|edBG AcBA|
GEEF G2Bd|egfa g2fe|dBAG AdBA|G2GF G2:|
|:dc|BGBd gbaf|gage d2ef|gedB cBcd|BGdB A2dc|
Bdgb c'afg|bgdB c2dc|Bdgd ecAF|G2GF G2:|

